X:SSF 14-19b 11
T:Grand Chain
M:4/4
K:G
P:A
B2Bc BAGB d2d2 B4 |1,3 cdcB A4 dedc B4 :|2,4 cBcB A2F2 G2 ||
P:B
{d2e2f2}| g2f2 efge d2d2 B4 |1,3 cdcB A4 dedc B4 :|2,4 cBcB A2F2 G2 ||

% SSF 14-19b 12 = SSF 14-18 65 Gathering Peascods, into..

